X: 1
T: Sfarlis
O: Folk dance from Thrace
M: 9/8
L: 1/8
Z: 2012 John Chambers <jc:trillian.mit.edu>
Q: 1/4 1/4 1/4 3/8
K: D
"A"\
|: "D"A2 Ad B2 "G"(~B2A) | "D"AG FG ~A2 (B2A) | "D"A2 Ad B2 "G"(~B2A) | "D"AG FG ~A2 A3 :|
"B"\
|: "G"~B2 AG FG "D"EFD | D2 DD FG "G"A~B2 | "G"~B2 AG FG "D"EFD | FE {F}ED ~D2 "^Fine."D3 :|
"C"\
|::: "D"F2 FD GA (~G2F) | "D"F2 FD GA (~G2F) | "D"F2 FD GA (~G2F) | "E7"GEFD "A"~E2 E3 "4X"y :::|
